modules/hawcons-stroke/icons/degree-celsius.svg

<?xml version="1.0" encoding="UTF-8" standalone="no"?>
<svg width="32px" height="32px" viewBox="0 0 32 32" version="1.1" xmlns="http://www.w3.org/2000/svg" xmlns:xlink="http://www.w3.org/1999/xlink" xmlns:sketch="http://www.bohemiancoding.com/sketch/ns">
    <!-- Generator: Sketch 3.0.3 (7891) - http://www.bohemiancoding.com/sketch -->
    <title>icon 60 degree celsius</title>
    <desc>Created with Sketch.</desc>
    <defs></defs>
    <g id="Page-1" stroke="none" stroke-width="1" fill="none" fill-rule="evenodd" sketch:type="MSPage">
        <g id="icon-60-degree-celsius" sketch:type="MSArtboardGroup" fill="#929292">
            <path d="M26,11.5 C26,11.7761424 26.2319336,12 26.5,12 C26.7761424,12 27,11.7680664 27,11.5 L27,10.9952534 C27,8.23645112 24.7710151,6 21.9978137,6 L20.0021863,6 C17.2395551,6 15,8.23603796 15,10.9952534 L15,21.0047466 C15,23.7635489 17.2289849,26 20.0021863,26 L21.9978137,26 C24.7604449,26 27,23.763962 27,21.0047466 L27,20.5 L27,20.5 C27,20.2238576 26.7680664,20 26.5,20 C26.2238576,20 26,20.2319336 26,20.5 L26,21.0052166 C26,23.2082844 24.204768,25 21.990237,25 L20.009763,25 C17.7877996,25 16,23.2114745 16,21.0052166 L16,10.9947834 C16,8.79171562 17.795232,7 20.009763,7 L21.990237,7 C24.2122004,7 26,8.78852545 26,10.9947834 L26,11.5000001 L26,11.5 L26,11.5 Z M9,14 C11.2091391,14 13,12.2091391 13,10 C13,7.79086089 11.2091391,6 9,6 C6.79086089,6 5,7.79086089 5,10 C5,12.2091391 6.79086089,14 9,14 L9,14 Z M9,13 C10.6568543,13 12,11.6568543 12,10 C12,8.34314567 10.6568543,7 9,7 C7.34314567,7 6,8.34314567 6,10 C6,11.6568543 7.34314567,13 9,13 L9,13 Z" id="degree-celsius" sketch:type="MSShapeGroup"></path>
        </g>
    </g>
</svg>

<svg width="32" height="32" viewBox="0 0 32 32" xmlns="http://www.w3.org/2000/svg"><path d="M26 11.5c0 .276.232.5.5.5.276 0 .5-.232.5-.5v-.505A4.992 4.992 0 0 0 21.998 6h-1.996A4.998 4.998 0 0 0 15 10.995v10.01A4.992 4.992 0 0 0 20.002 26h1.996A4.998 4.998 0 0 0 27 21.005V20.5c0-.276-.232-.5-.5-.5-.276 0-.5.232-.5.5v.505A4.004 4.004 0 0 1 21.99 25h-1.98A3.998 3.998 0 0 1 16 21.005v-10.01A4.004 4.004 0 0 1 20.01 7h1.98A3.998 3.998 0 0 1 26 10.995v.505zM9 14a4 4 0 1 0 0-8 4 4 0 0 0 0 8zm0-1a3 3 0 1 0 0-6 3 3 0 0 0 0 6z" fill="#929292" fill-rule="evenodd"/></svg>
